T: Barbara Allen
M: 4/4
L: 1/8
K: Gmin
D2|GABG ABcA|d2d2 cAFA|B2GB A2FA|GABG cAF2|!GABG ABcA|d2d2 cAFA|B2GA BAGF|D2G2G2:|!|:f2|gfdf gfdf|g^fga gbag|fcAB fcAB|defd cAF2|!GABG ABcA|d2d2 cAF2|B2GA BAGF|D2G2G2:|
